shader_type canvas_item;

uniform float intensity : hint_range(0.0, 1.0) = 0.0;
uniform vec4 flash_color : source_color = vec4(0.98, 0.94, 0.82, 1.0);

void fragment() {
	COLOR = vec4(flash_color.rgb, flash_color.a * intensity);
}
